dist/static/img/support/03.svg

<svg width="48" height="48" viewBox="0 0 48 48" fill="none" xmlns="http://www.w3.org/2000/svg">
<g clip-path="url(#clip0_1042_2957)">
<path d="M41.9835 29.7905C42.5885 27.9232 42.8957 25.9757 42.8957 23.9912C42.8957 22.014 42.5907 20.0735 41.9894 18.212C43.3118 17.7155 44.514 16.9204 45.5123 15.8632C47.2375 14.0369 48.1479 11.6477 48.0762 9.1366C47.9275 3.95215 43.5894 -0.143921 38.4042 0.00402832C35.8927 0.0758057 33.5599 1.12134 31.8347 2.948C30.9635 3.87048 30.3007 4.93652 29.8667 6.08936C28.0049 5.4884 26.0643 5.18335 24.0864 5.18335C22.1074 5.18335 20.1654 5.48914 18.3025 6.09082C16.9589 2.53528 13.5201 0 9.49988 0C4.31323 0 0.09375 4.21948 0.09375 9.40576C0.09375 13.4257 2.62939 16.864 6.18494 18.2073C5.58289 20.0706 5.27747 22.0126 5.27747 23.9912C5.27747 25.9757 5.58472 27.9232 6.1897 29.7905C2.63159 31.1327 0.09375 34.5725 0.09375 38.5942C0.09375 40.01 0.400635 41.3712 1.00598 42.6398C1.17334 42.9902 1.59302 43.1389 1.94348 42.9716C2.29358 42.8042 2.44226 42.3845 2.27527 42.0341C1.76074 40.9559 1.5 39.7987 1.5 38.5942C1.5 34.1836 5.08887 30.5951 9.49988 30.5951C13.9113 30.5951 17.5001 34.1836 17.5001 38.5942C17.5001 43.0052 13.9113 46.5938 9.49988 46.5938C7.48791 46.5938 5.56494 45.8441 4.08545 44.4829C3.79944 44.22 3.35449 44.2386 3.09192 44.5243C2.82898 44.8103 2.84729 45.2549 3.1333 45.5178C4.87317 47.1185 7.13415 48 9.49988 48C13.526 48 16.9691 45.457 18.3083 41.8934C20.1691 42.494 22.1093 42.7991 24.0864 42.7991C26.064 42.7991 28.0045 42.494 29.8652 41.8938C31.2045 45.4574 34.6476 48 38.6737 48C43.8603 48 48.0798 43.7805 48.0798 38.5942C48.0798 34.5725 45.542 31.1323 41.9835 29.7905ZM32.8572 3.91333C34.3242 2.35986 36.3087 1.4707 38.4448 1.40955C38.5225 1.40735 38.5994 1.40625 38.677 1.40625C42.9829 1.40625 46.5465 4.84534 46.6703 9.17651C46.7314 11.3123 45.9573 13.344 44.4902 14.8978C43.0232 16.4513 41.0387 17.3405 38.9026 17.4016C38.8249 17.4038 38.7477 17.4049 38.6704 17.4049C34.3645 17.4049 30.8009 13.9658 30.6771 9.63464C30.6156 7.4989 31.3901 5.4668 32.8572 3.91333ZM29.4708 40.5432C27.7383 41.1064 25.9303 41.3928 24.0864 41.3928C22.2433 41.3928 20.4353 41.1064 18.7028 40.5432C18.8357 39.9141 18.9064 39.2622 18.9064 38.5942C18.9064 33.408 14.6865 29.1888 9.49988 29.1888C8.82788 29.1888 8.17236 29.2603 7.53992 29.3947C6.97192 27.6559 6.68372 25.8413 6.68372 23.9912C6.68372 22.147 6.97046 20.3383 7.53479 18.6039C8.1687 18.7394 8.82605 18.8112 9.49988 18.8112C11.1112 18.8112 12.7009 18.3966 14.098 17.6125C14.4364 17.4225 14.5569 16.994 14.3668 16.6553C14.1768 16.3165 13.7483 16.1964 13.4095 16.3865C12.2223 17.0526 10.8702 17.4049 9.49988 17.4049C5.0885 17.4049 1.5 13.8164 1.5 9.4054C1.5 4.99475 5.08887 1.40625 9.49988 1.40625C13.9113 1.40625 17.5001 4.99475 17.5001 9.40576C17.5001 11.2511 16.8567 13.0514 15.6885 14.4756C15.442 14.7755 15.486 15.2186 15.7863 15.4651C16.0862 15.7112 16.5293 15.6676 16.7758 15.3673C18.1494 13.6926 18.9064 11.5752 18.9064 9.4054C18.9064 8.73193 18.8342 8.07458 18.6991 7.44067C20.4331 6.87634 22.2422 6.5896 24.0864 6.5896C25.9303 6.5896 27.7386 6.87598 29.4719 7.43958C29.3185 8.16541 29.2496 8.91431 29.2712 9.67493C29.4174 14.7678 33.6068 18.8115 38.67 18.8112C38.7605 18.8112 38.8517 18.8101 38.9429 18.8071C39.5193 18.7906 40.0862 18.7222 40.6388 18.6053C41.2028 20.339 41.4895 22.1477 41.4895 23.9912C41.4895 25.8413 41.2009 27.6559 40.6333 29.3947C40.0009 29.2599 39.3453 29.1888 38.6737 29.1888C33.4871 29.1888 29.2676 33.408 29.2676 38.5942C29.2676 39.2626 29.3379 39.9144 29.4708 40.5432ZM38.6737 46.5938C34.2623 46.5938 30.6738 43.0052 30.6738 38.5946C30.6738 34.1836 34.2623 30.5951 38.6737 30.5951C43.0851 30.5951 46.6736 34.1836 46.6736 38.5946C46.6736 43.0052 43.0851 46.5938 38.6737 46.5938Z" fill="#1F5AFF"/>
<path d="M14.2878 5.2547C14.0453 5.08991 13.7264 5.09247 13.4869 5.26166C13.2474 5.43049 12.991 5.57148 12.7215 5.68317C11.7554 4.92731 10.3554 4.9361 9.3963 5.76996C8.89788 6.20356 8.58624 6.80304 8.51373 7.45051C7.48211 7.29706 6.54974 6.72907 5.93817 5.85822C5.79242 5.65094 5.54632 5.53852 5.29474 5.56269C5.04242 5.58722 4.82306 5.74543 4.72015 5.97687C4.70001 6.02228 4.22686 7.10334 4.28729 8.42646C4.33343 9.43903 4.69561 10.7442 6.01654 11.752C5.54083 11.9055 5.03839 11.9765 4.53778 11.9564C4.21185 11.9435 3.92071 12.1556 3.83282 12.4691C3.74493 12.7825 3.88372 13.1154 4.16827 13.2736C5.2713 13.8863 6.45306 14.1932 7.60772 14.1932C8.71698 14.1932 9.80096 13.9097 10.7656 13.3425C11.9752 12.6309 12.8541 11.5414 13.3312 10.211C13.3462 10.1773 13.3587 10.1422 13.3686 10.1059C13.6139 9.38337 13.7425 8.59198 13.7425 7.75263C13.7425 7.71601 13.7414 7.67902 13.7399 7.6424C14.1413 7.16926 14.4277 6.60859 14.5756 6.00251C14.6445 5.7176 14.5302 5.4195 14.2878 5.2547ZM12.3146 7.53327C12.3285 7.60651 12.3359 7.68232 12.3359 7.75483C12.3359 8.44404 12.2333 9.08234 12.0381 9.65912C12.0275 9.68549 12.0187 9.71296 12.0114 9.74115C11.6463 10.7629 10.9816 11.5836 10.0525 12.1303C9.20221 12.6309 8.22625 12.8441 7.23162 12.7719C7.45941 12.6591 7.6795 12.5309 7.89007 12.3881C8.10101 12.2446 8.2182 11.9981 8.19549 11.7436C8.17279 11.4891 8.01385 11.2672 7.78058 11.1635C6.46771 10.5801 5.76568 9.65216 5.69427 8.40595C5.67962 8.1507 5.69244 7.90571 5.71991 7.68122C6.68707 8.48945 7.92596 8.93036 9.21905 8.89704C9.60028 8.88715 9.90423 8.57551 9.90423 8.19428V7.76764C9.90423 7.76471 9.90423 7.76142 9.90423 7.75812C9.89947 7.40253 10.0504 7.06452 10.3191 6.83124C10.8216 6.39435 11.5855 6.44745 12.0224 6.94989C12.1103 7.0506 12.2223 7.12201 12.3447 7.15973C12.3018 7.27765 12.2905 7.40619 12.3146 7.53327Z" fill="#1F5AFF"/>
<path d="M36.3604 9.95984H37.3572V14.1526C37.3572 14.5408 37.6721 14.8557 38.0603 14.8557C38.4489 14.8557 38.7634 14.5408 38.7634 14.1526V9.95984H39.8492C40.2374 9.95984 40.5524 9.6449 40.5524 9.25671C40.5524 8.86853 40.2374 8.55359 39.8492 8.55359H38.7634V6.5863C38.7634 5.91101 39.3131 5.36133 39.9888 5.36133H40.8992C41.2874 5.36133 41.6023 5.04639 41.6023 4.6582C41.6023 4.26965 41.2874 3.95508 40.8992 3.95508H39.9888C38.5378 3.95508 37.3572 5.13538 37.3572 6.5863V8.55359H36.3604C35.9722 8.55359 35.6572 8.86853 35.6572 9.25671C35.6572 9.6449 35.9722 9.95984 36.3604 9.95984Z" fill="#1F5AFF"/>
<path d="M7.90503 42.2307C8.07239 42.2307 8.23975 42.1875 8.38879 42.1014L13.1748 39.3369C13.4733 39.1648 13.6586 38.8436 13.6586 38.499C13.6586 38.1548 13.4733 37.8336 13.1748 37.6615L8.38879 34.8969C8.0907 34.7245 7.72009 34.7245 7.42163 34.8969C7.12317 35.0691 6.9375 35.3902 6.9375 35.7348V41.2635C6.9375 41.6081 7.12317 41.9293 7.42163 42.1014C7.57068 42.1878 7.73767 42.2307 7.90503 42.2307ZM8.34375 36.4951L11.814 38.4994L8.34375 40.5036V36.4951Z" fill="#1F5AFF"/>
<path d="M41.7288 33.6143H35.6182C34.5569 33.6143 33.6934 34.4778 33.6934 35.5394V41.6489C33.6934 42.7106 34.5569 43.5741 35.6182 43.5741H41.7288C42.79 43.5741 43.6536 42.7106 43.6536 41.6489V35.5394C43.6536 34.4778 42.79 33.6143 41.7288 33.6143ZM42.2473 41.6489C42.2473 41.9353 42.0148 42.1678 41.7288 42.1678H35.6182C35.3322 42.1678 35.0996 41.9353 35.0996 41.6489V35.5394C35.0996 35.2534 35.3322 35.0205 35.6182 35.0205H41.7288C42.0148 35.0205 42.2473 35.2534 42.2473 35.5394V41.6489Z" fill="#1F5AFF"/>
<path d="M38.6733 36.4688C37.5015 36.4688 36.5479 37.4224 36.5479 38.5942C36.5479 39.7661 37.5015 40.7194 38.6733 40.7194C39.8452 40.7194 40.7988 39.7661 40.7988 38.5942C40.7988 37.4224 39.8452 36.4688 38.6733 36.4688ZM38.6733 39.3131C38.2767 39.3131 37.9541 38.9905 37.9541 38.5942C37.9541 38.1976 38.2767 37.875 38.6733 37.875C39.0699 37.875 39.3926 38.1976 39.3926 38.5942C39.3926 38.9905 39.0699 39.3131 38.6733 39.3131Z" fill="#1F5AFF"/>
<path d="M29.1758 16.6963C28.7872 16.6963 28.4727 17.0112 28.4727 17.3994V17.7147C27.4817 18.2988 26.4398 18.8031 25.3687 19.2158C24.511 19.5461 23.6251 19.8208 22.729 20.0358C22.5913 19.9299 22.4199 19.8658 22.2332 19.8658H19.0138C18.236 19.8658 17.6035 20.4987 17.6035 21.2761V24.9686C17.6035 25.7465 18.236 26.3789 19.0138 26.3789H19.6572L19.9011 31.0671C19.9205 31.4425 20.2311 31.7336 20.6028 31.7336C20.6149 31.7336 20.6273 31.7333 20.6398 31.7325C21.0276 31.7124 21.3257 31.3817 21.3055 30.9939L21.0653 26.3789H22.2332C22.4196 26.3789 22.5913 26.3152 22.7286 26.2094C23.2992 26.347 23.8668 26.5089 24.4216 26.6931C24.7904 26.8151 25.1881 26.6155 25.3104 26.2471C25.4327 25.8783 25.2328 25.4802 24.8644 25.3583C24.2686 25.1605 23.6592 24.9866 23.0461 24.839V21.4065C24.0063 21.1765 24.9552 20.8817 25.874 20.528C26.7625 20.1855 27.6326 19.7845 28.4723 19.3304V26.9161C28.1632 26.7491 27.8508 26.5898 27.5363 26.4386C27.1862 26.2701 26.7661 26.4174 26.598 26.7675C26.4296 27.1176 26.5768 27.5376 26.9269 27.7061C27.4506 27.958 27.9684 28.2356 28.4723 28.5315V28.8453C28.4723 29.2339 28.7872 29.5485 29.1754 29.5485C29.5636 29.5485 29.8785 29.2339 29.8785 28.8453V17.3994C29.8789 17.0112 29.564 16.6963 29.1758 16.6963ZM21.6403 24.9723L19.0098 24.9686L19.0138 21.2721H21.6403V24.9723Z" fill="#1F5AFF"/>
</g>
<defs>
<clipPath id="clip0_1042_2957">
<rect width="48" height="48" fill="white"/>
</clipPath>
</defs>
</svg>

<svg width="48" height="48" viewBox="0 0 48 48" fill="none" xmlns="http://www.w3.org/2000/svg"><g clip-path="url(#clip0_1042_2957)" fill="#1F5AFF"><path d="M41.983 29.79c.606-1.867.913-3.814.913-5.799 0-1.977-.305-3.918-.907-5.779a9.367 9.367 0 003.523-2.349 9.343 9.343 0 002.564-6.726c-.148-5.185-4.487-9.28-9.672-9.133a9.344 9.344 0 00-6.57 2.944 9.387 9.387 0 00-1.967 3.141 18.77 18.77 0 00-5.78-.906c-1.98 0-3.922.306-5.785.908C16.96 2.535 13.52 0 9.5 0 4.313 0 .094 4.22.094 9.406c0 4.02 2.535 7.458 6.09 8.801a18.764 18.764 0 00-.907 5.784c0 1.985.308 3.932.913 5.8C2.632 31.133.094 34.572.094 38.594a9.32 9.32 0 00.912 4.046.703.703 0 001.27-.606 7.924 7.924 0 01-.776-3.44c0-4.41 3.589-7.999 8-7.999s8 3.589 8 8c0 4.41-3.589 7.999-8 7.999a7.976 7.976 0 01-5.415-2.111.703.703 0 00-.952 1.035A9.382 9.382 0 009.5 48c4.026 0 7.47-2.543 8.808-6.107 1.861.601 3.801.906 5.778.906 1.978 0 3.919-.305 5.78-.905C31.203 45.457 34.647 48 38.673 48c5.186 0 9.406-4.22 9.406-9.406 0-4.022-2.538-7.462-6.096-8.803zM32.858 3.914a7.948 7.948 0 015.82-2.507c4.306 0 7.87 3.44 7.993 7.77a7.948 7.948 0 01-2.18 5.722 7.947 7.947 0 01-5.82 2.507c-4.306 0-7.87-3.44-7.993-7.77a7.946 7.946 0 012.18-5.722zm-3.386 36.63a17.38 17.38 0 01-5.385.85c-1.843 0-3.65-.287-5.383-.85.133-.629.203-1.28.203-1.949 0-5.186-4.22-9.405-9.406-9.405a9.42 9.42 0 00-1.96.206 17.357 17.357 0 01-.856-5.404c0-1.844.286-3.653.85-5.387a9.413 9.413 0 006.563-.991.703.703 0 00-.688-1.226 8.006 8.006 0 01-3.91 1.018c-4.41 0-7.999-3.589-7.999-8 0-4.41 3.589-7.999 8-7.999s8 3.589 8 8a8.013 8.013 0 01-1.812 5.07.703.703 0 101.088.891A9.425 9.425 0 0018.7 7.442a17.364 17.364 0 015.387-.851c1.844 0 3.653.286 5.386.85a9.497 9.497 0 00-.2 2.235c.145 5.093 4.335 9.136 9.398 9.136.09 0 .182 0 .273-.004a9.504 9.504 0 001.696-.202 17.37 17.37 0 01.85 5.386c0 1.85-.288 3.665-.856 5.404a9.392 9.392 0 00-1.96-.206c-5.186 0-9.405 4.219-9.405 9.405 0 .669.07 1.32.203 1.95zm9.203 6.05c-4.412 0-8-3.588-8-7.998 0-4.411 3.588-8 8-8 4.411 0 8 3.589 8 8 0 4.41-3.589 7.999-8 7.999z"/><path d="M14.288 5.255a.703.703 0 00-.801.007c-.24.168-.496.31-.765.421a2.618 2.618 0 00-3.326.087 2.61 2.61 0 00-.882 1.68 3.833 3.833 0 01-2.576-1.592.704.704 0 00-1.218.119 5.95 5.95 0 00-.433 2.45c.046 1.012.409 2.317 1.73 3.325a4.269 4.269 0 01-1.48.204.703.703 0 00-.369 1.318c1.103.612 2.285.92 3.44.92a6.197 6.197 0 003.158-.852c1.21-.711 2.088-1.8 2.565-3.131a7.307 7.307 0 00.409-2.569 3.999 3.999 0 00.836-1.64.704.704 0 00-.288-.747zm-1.973 2.278c.014.074.02.15.02.222a5.924 5.924 0 01-.324 1.986 4.453 4.453 0 01-1.958 2.39c-.85.5-1.827.713-2.821.64.227-.112.447-.24.658-.383a.704.704 0 00-.11-1.224c-1.312-.584-2.014-1.512-2.086-2.758a4.08 4.08 0 01.026-.725 5.24 5.24 0 003.499 1.216.703.703 0 00.685-.703v-.436a1.209 1.209 0 012.118-.808c.088.1.2.172.323.21a.706.706 0 00-.03.373zM36.36 9.96h.997v4.193a.703.703 0 001.406 0V9.96h1.086a.703.703 0 000-1.406h-1.086V6.586c0-.675.55-1.225 1.226-1.225h.91a.703.703 0 000-1.406h-.91a2.634 2.634 0 00-2.632 2.631v1.968h-.997a.703.703 0 000 1.406zM7.905 42.23a.967.967 0 00.484-.129l4.786-2.764a.97.97 0 000-1.675l-4.786-2.765a.969.969 0 00-1.451.838v5.529a.97.97 0 00.967.967zm.439-5.735l3.47 2.004-3.47 2.005v-4.009zm33.385-2.881h-6.11a1.927 1.927 0 00-1.926 1.925v6.11c0 1.062.864 1.925 1.925 1.925h6.11a1.927 1.927 0 001.926-1.925v-6.11a1.927 1.927 0 00-1.925-1.925zm.518 8.035a.519.519 0 01-.518.519h-6.11a.52.52 0 01-.52-.52V35.54a.52.52 0 01.52-.519h6.11a.52.52 0 01.518.52v6.109z"/><path d="M38.673 36.469a2.128 2.128 0 00-2.125 2.125c0 1.172.953 2.125 2.125 2.125a2.128 2.128 0 002.126-2.125 2.128 2.128 0 00-2.126-2.125zm0 2.844a.72.72 0 11.002-1.44.72.72 0 01-.002 1.44zm-9.497-22.617a.703.703 0 00-.703.703v.316a20.983 20.983 0 01-3.104 1.5c-.858.331-1.744.606-2.64.82a.81.81 0 00-.496-.17h-3.22c-.777 0-1.41.634-1.41 1.411v3.693c0 .777.633 1.41 1.41 1.41h.644l.244 4.688a.703.703 0 101.404-.073l-.24-4.615h1.168a.81.81 0 00.496-.17c.57.138 1.138.3 1.693.484a.703.703 0 00.442-1.335 22.49 22.49 0 00-1.818-.519v-3.432a22.437 22.437 0 005.426-2.077v7.586a22.27 22.27 0 00-.936-.477.703.703 0 10-.61 1.267c.525.252 1.042.53 1.546.826v.313a.703.703 0 101.406 0V17.4a.703.703 0 00-.702-.703zm-7.536 8.276l-2.63-.003.004-3.697h2.626v3.7z"/></g><defs><clipPath id="clip0_1042_2957"><path fill="#fff" d="M0 0h48v48H0z"/></clipPath></defs></svg>
